X:108
T:Didda, The
M:4/4
L:1/8
K:G
|:D|"G"G3 B "C"AGEF|"G"G2 BA "Em"G<EEG|"G"D2 GB dGBd|"Em"e/f/e dB "D"A2 Bd|!
"Em"efeB "G"d2 gf|"Em"e2 dB "D"A2 dB|"C"E<GCG "G"dedB|"D"A/B/A "G"GE G3:|!
|:d|"Em"g3 d "C"c2 BA|"G"B2 AG "C"E2 GE|"G"D3 G "Em"E/F/G AB|"Bm"d2 BA "C"AGEG|!
"Em"e3 f "C"edBA|"D"A2 Bd "Em"e2 ga|"Bm"b2 ag "G"edBG|"D"B<A GE "G"G3:|

